img/icons/this/caring/three.svg

<svg width="170" height="240" viewBox="0 0 170 240" fill="none" xmlns="http://www.w3.org/2000/svg">
<path opacity="0.4" d="M76.2066 94.2018C86.3414 94.2018 95.0974 91.3013 102.434 85.5449C109.754 79.7718 113.419 71.5101 113.419 60.7098C113.419 52.4983 110.495 45.4113 104.658 39.499C98.8146 33.5532 90.9262 30.5915 80.9925 30.5915C74.2876 30.5915 68.7491 31.5045 64.4113 33.3139C60.0391 35.1343 56.5919 37.5393 54.0639 40.5233C51.513 43.5073 49.1229 47.3598 46.8765 52.064C44.7579 56.4716 42.6932 60.9034 40.683 65.3584C39.5626 67.6019 37.5805 69.3667 34.702 70.6416C31.8466 71.9221 28.5487 72.5678 24.7913 72.5678C20.3731 72.5678 16.3398 70.8365 12.6341 67.3626C8.95128 63.8887 7.10702 59.2735 7.10702 53.5059C7.10702 47.9499 8.85935 42.1044 12.3066 35.9805C15.7768 29.8399 20.8557 23.9833 27.5318 18.4273C34.1964 12.8768 42.487 8.41197 52.4093 5.03827C62.32 1.68128 73.3971 0 85.6462 0C96.3326 0 106.082 1.42519 114.902 4.25887C123.732 7.07585 131.374 11.1621 137.883 16.4955C144.387 21.8511 149.293 28.0473 152.603 35.0898C155.918 42.1434 157.555 49.7202 157.555 57.8316C157.555 68.5094 155.159 77.6785 150.374 85.2999C145.565 92.9548 138.705 100.398 129.782 107.68C138.377 112.167 145.622 117.294 151.523 123.051C157.429 128.824 161.859 135.198 164.835 142.191C167.811 149.205 169.282 156.76 169.282 164.877C169.282 174.592 167.276 184 163.266 193.058C159.233 202.138 153.304 210.227 145.478 217.336C137.676 224.429 128.375 229.996 117.625 233.993C106.875 238.001 95.0054 240 81.9979 240C68.7721 240 56.8964 237.701 46.4571 233.097C35.9718 228.526 27.3422 222.775 20.5799 215.894C13.7831 209.019 8.65827 201.871 5.18807 194.511C1.71787 187.134 0 181.055 0 176.245C0 170.054 2.06833 165.055 6.17627 161.269C10.3129 157.478 15.4608 155.585 21.66 155.585C24.7396 155.585 27.7157 156.454 30.5711 158.235C33.4495 159.983 35.3283 162.099 36.2016 164.548C41.9469 179.413 48.0773 190.425 54.627 197.634C61.1997 204.843 70.4152 208.457 82.3254 208.457C89.1681 208.457 95.7523 206.82 102.084 203.563C108.427 200.312 113.689 195.479 117.792 189.066C121.928 182.658 123.991 175.243 123.991 166.803C123.991 154.305 120.446 144.479 113.408 137.408C106.347 130.299 96.528 126.753 83.9686 126.753C81.7451 126.753 78.3611 126.959 73.7188 127.393C69.0766 127.816 66.1005 128.022 64.7963 128.022C58.7292 128.022 54.0409 126.558 50.7316 123.624C47.428 120.685 45.7849 116.61 45.7849 111.365C45.7849 106.249 47.7727 102.107 51.7198 98.9561C55.6956 95.7996 61.5961 94.2296 69.427 94.2296H76.2066V94.2018Z" fill="#D2D2D2"/>
</svg>

<svg width="170" height="240" fill="none" xmlns="http://www.w3.org/2000/svg"><path opacity=".4" d="M76.207 94.202c10.134 0 18.89-2.9 26.227-8.657 7.32-5.773 10.985-14.035 10.985-24.835 0-8.212-2.924-15.299-8.761-21.211-5.843-5.946-13.732-8.908-23.665-8.908-6.705 0-12.244.913-16.582 2.723-4.372 1.82-7.82 4.225-10.347 7.21-2.551 2.983-4.941 6.836-7.188 11.54a606.228 606.228 0 00-6.193 13.294c-1.12 2.244-3.102 4.009-5.981 5.284-2.855 1.28-6.153 1.926-9.91 1.926-4.419 0-8.452-1.731-12.158-5.205-3.683-3.474-5.527-8.09-5.527-13.857 0-5.556 1.752-11.402 5.2-17.526 3.47-6.14 8.549-11.997 15.225-17.553 6.664-5.55 14.955-10.015 24.877-13.389C62.32 1.681 73.397 0 85.646 0c10.687 0 20.436 1.425 29.256 4.259 8.83 2.817 16.472 6.903 22.981 12.236 6.504 5.356 11.41 11.552 14.72 18.595 3.315 7.053 4.952 14.63 4.952 22.742 0 10.677-2.396 19.846-7.181 27.468-4.809 7.655-11.669 15.098-20.592 22.38 8.595 4.487 15.84 9.614 21.741 15.371 5.906 5.773 10.336 12.147 13.312 19.14 2.976 7.014 4.447 14.569 4.447 22.686 0 9.715-2.006 19.123-6.016 28.181-4.033 9.08-9.962 17.169-17.788 24.278-7.802 7.093-17.103 12.66-27.853 16.657-10.75 4.008-22.62 6.007-35.627 6.007-13.226 0-25.102-2.299-35.54-6.903-10.486-4.571-19.116-10.322-25.878-17.203-6.797-6.875-11.922-14.023-15.392-21.383C1.718 187.134 0 181.055 0 176.245c0-6.191 2.068-11.19 6.176-14.976 4.137-3.791 9.285-5.684 15.484-5.684 3.08 0 6.056.869 8.911 2.65 2.878 1.748 4.757 3.864 5.63 6.313 5.746 14.865 11.876 25.877 18.426 33.086 6.573 7.209 15.788 10.823 27.698 10.823 6.843 0 13.427-1.637 19.759-4.894 6.343-3.251 11.605-8.084 15.708-14.497 4.136-6.408 6.199-13.823 6.199-22.263 0-12.498-3.545-22.324-10.583-29.395-7.061-7.109-16.88-10.655-29.44-10.655-2.223 0-5.607.206-10.25.64-4.641.423-7.618.629-8.922.629-6.067 0-10.755-1.464-14.064-4.398-3.304-2.939-4.947-7.014-4.947-12.259 0-5.116 1.988-9.258 5.935-12.409 3.976-3.156 9.876-4.726 17.707-4.726h6.78v-.028z" fill="#D2D2D2"/></svg>
